X: 90
T: Anima Christi sanctifica me
C: Gaspar van Weerbeke
%%abc-version 2.0
%%abcx-abcm2ps-target-version 5.9.1 (29 Sep 2008)
%%abc-creator hum2abc beta
%%abcx-conversion-date 2022/03/06 13:05:59
%%abc-copyright Copyright 2008, Pavanello, Agnese
%%abc-edited-by Mair-Gruber, Roland
%%humdrum-veritas 1874109891
%%humdrum-veritas-data 22014033
%%linebreak <none>
%%barnumbers 0
L: 1/4
M: 2/2
N: Derived from Gas0414-Anima_Christi_sanctifica_me.krn
%%staves [1 2 3 4]
V: 1 clef=treble
V: 2 clef=treble-8
V: 3 clef=treble-8
V: 4 clef=bass
K: C
[V:1] A2AA | 
[V:2] c2cc | 
[V:3] E2EE | 
[V:4] A,,2A,,A,, | 
[V:1] G2GG | 
[V:2] c2ee | 
[V:3] E2EE | 
[V:4] C,2C,C, | 
[V:1] F>EFG | 
[V:2] d2dd | 
[V:3] A2AA | 
[V:4] D,2D,D, | 
[V:1] !fermata!E4 | 
[V:2] !fermata!c4 | 
[V:3] !fermata!A4 | 
[V:4] !fermata!A,,4 | 
[V:1] E3E | 
[V:2] c3c | 
[V:3] G3G | 
[V:4] C,3C, | 
[V:1] E2D2 | 
[V:2] G2G2 | 
[V:3] c2B2 | 
[V:4] C,2G,,2 | 
[V:1] EG2^F | 
[V:2] zd2d | 
[V:3] cBA2 | 
[V:4] C,G,,D,2 | 
[V:1] G4 | 
[V:2] B4 | 
[V:3] G4 | 
[V:4] E,4 | 
[V:1] z4 | 
[V:2] c>dec | 
[V:3] E3E | 
[V:4] C,3C, | 
[V:1] z2E2- | 
[V:2] d2c2 | 
[V:3] G2A2 | 
[V:4] B,,2A,,2 | 
[V:1] EEG2 | 
[V:2] z2e2 | 
[V:3] c2B2 | 
[V:4] A,,2E,2 | 
[V:1] A2AB- | 
[V:2] cfeg- | 
[V:3] A>Bcd- | 
[V:4] F,>G,A,G,- | 
[V:1] BA2^G | 
[V:2] gee2 | 
[V:3] dcB2 | 
[V:4] G,A,E,2 | 
[V:1] !fermata!A4 | 
[V:2] !fermata!e4 | 
[V:3] !fermata!A4 | 
[V:4] !fermata!A,,4 | 
[V:1] z4 | 
[V:2] e3e | 
[V:3] c3c | 
[V:4] z4 | 
[V:1] c3c | 
[V:2] ef>ea | 
[V:3] A2AA | 
[V:4] z4 | 
[V:1] c2BB | 
[V:2] efg2 | 
[V:3] A2G2 | 
[V:4] z4 | 
[V:1] A2G2 | 
[V:2] e4 | 
[V:3] A2B2 | 
[V:4] A,,2E,2 | 
[V:1] A>GAB | 
[V:2] c2d2 | 
[V:3] A3G | 
[V:4] F,4 | 
[V:1] !fermata!G4 | 
[V:2] !fermata!e4 | 
[V:3] !fermata!B4 | 
[V:4] !fermata!E,4 | 
[V:1] G2EE | 
[V:2] E2GG | 
[V:3] c2cc | 
[V:4] C,2C,C, | 
[V:1] D2DG | 
[V:2] G2GG | 
[V:3] B2BB | 
[V:4] G,,2G,,G,, | 
[V:1] E>CDD | 
[V:2] C>EDD | 
[V:3] c>AGG | 
[V:4] A,,2B,,2 | 
[V:1] C4- | 
[V:2] E4- | 
[V:3] A4- | 
[V:4] A,,4- | 
[V:1] C2G2 | 
[V:2] E2e2 | 
[V:3] A2B2 | 
[V:4] A,,2E,2 | 
[V:1] G2G2 | 
[V:2] e2e2 | 
[V:3] B2c2 | 
[V:4] E,2E,2 | 
[V:1] F4 | 
[V:2] A3B | 
[V:3] d4 | 
[V:4] D,4 | 
[V:1] E2D2 | 
[V:2] c2d2 | 
[V:3] G2B2 | 
[V:4] C,2G,,2 | 
[V:1] E2F2- | 
[V:2] G2F2 | 
[V:3] c2A2- | 
[V:4] C,2D,2- | 
[V:1] FEE2- | 
[V:2] z2c2 | 
[V:3] A2G2 | 
[V:4] D,A,,C,2 | 
[V:1] E2D2 | 
[V:2] A2A2 | 
[V:3] F4 | 
[V:4] D,4 | 
[V:1] !fermata!E4 | 
[V:2] !fermata!A4 | 
[V:3] !fermata!E4 | 
[V:4] !fermata!A,,4 | 
[V:1] [M:3/2]z6 | 
[V:2] [M:3/2]c2G2B2 | 
[V:3] [M:3/2]E2>F2G2 | 
[V:4] [M:3/2]A,,2C,2B,,2 | 
[V:1] E2>F2G2 | 
[V:2] c2z2e2 | 
[V:3] Ac2dB2 | 
[V:4] A,,4E,2 | 
[V:1] Ac2dB2 | 
[V:2] e4e2 | 
[V:3] A4G2 | 
[V:4] A,,4E,2 | 
[V:1] A4G2 | 
[V:2] c2>d2e2 | 
[V:3] A4B2 | 
[V:4] F,4E,2 | 
[V:1] A4B2 | 
[V:2] e4e2 | 
[V:3] c4B2 | 
[V:4] A,,4E,2 | 
[V:1] c4B2 | 
[V:2] e2>f2g2 | 
[V:3] A4G2 | 
[V:4] C,2A,,2E,2 | 
[V:1] A4G2 | 
[V:2] e4z2 | 
[V:3] c4B2 | 
[V:4] A,,4E,2 | 
[V:1] c4c2 | 
[V:2] c4g2- | 
[V:3] A4e2- | 
[V:4] F,4C,2 | 
[V:1] c2c4 | 
[V:2] g2g2g2 | 
[V:3] e2e4 | 
[V:4] C,2C,4 | 
[V:1] B4A2 | 
[V:2] g4e2 | 
[V:3] d4c2 | 
[V:4] G,4A,2 | 
[V:1] B4A2 | 
[V:2] g2>f2ed | 
[V:3] d4c2 | 
[V:4] G,4A,2 | 
[V:1] G4z2 | 
[V:2] e4z2 | 
[V:3] B6 | 
[V:4] E,6 | 
[V:1] z6 | 
[V:2] B2cA2F | 
[V:3] G2Ac2d | 
[V:4] z6 | 
[V:1] z6 | 
[V:2] G2E2z2 | 
[V:3] B2A2z2 | 
[V:4] G,,2A,,C,2D, | 
[V:1] z6 | 
[V:2] G2Ac2d | 
[V:3] z6 | 
[V:4] B,,2A,,2z2 | 
[V:1] G2Ac2d | 
[V:2] B2AF2D | 
[V:3] E2FA2F | 
[V:4] z6 | 
[V:1] B2A2d2- | 
[V:2] E2A2G2 | 
[V:3] G2A2B2- | 
[V:4] E,2F,2G,2- | 
[V:1] d2e3d | 
[V:2] g2g4 | 
[V:3] B2c4 | 
[V:4] G,2C,4 | 
[V:1] c4B2 | 
[V:2] g2g4 | 
[V:3] e2d4 | 
[V:4] C,2G,4 | 
[V:1] c6 | 
[V:2] e6 | 
[V:3] c6 | 
[V:4] C,6 | 
[V:1] z2z2c2 | 
[V:2] z2z2c2 | 
[V:3] z6 | 
[V:4] z6 | 
[V:1] c4B2 | 
[V:2] e4g2 | 
[V:3] z6 | 
[V:4] z6 | 
[V:1] B2A2A2 | 
[V:2] g2f2f2 | 
[V:3] z6 | 
[V:4] z6 | 
[V:1] B2>A2GF | 
[V:2] g2>f2ed | 
[V:3] z6 | 
[V:4] z6 | 
[V:1] G6 | 
[V:2] e6 | 
[V:3] z6 | 
[V:4] z6 | 
[V:1] c2B2A2- | 
[V:2] c2d2f2- | 
[V:3] z6 | 
[V:4] z6 | 
[V:1] A2G2G2 | 
[V:2] f2e2e2 | 
[V:3] z6 | 
[V:4] z6 | 
[V:1] F4E2 | 
[V:2] d4e2 | 
[V:3] z6 | 
[V:4] z6 | 
[V:1] A2>G2F2 | 
[V:2] f2>e2d2 | 
[V:3] z6 | 
[V:4] z6 | 
[V:1] E2F3E | 
[V:2] c2d3e | 
[V:3] z6 | 
[V:4] z6 | 
[V:1] E4E2 | 
[V:2] e4e2 | 
[V:3] z2z2B2 | 
[V:4] z2z2E,2 | 
[V:1] G4G2 | 
[V:2] e4e2 | 
[V:3] B4B2 | 
[V:4] E,4E,2 | 
[V:1] G2A2G2 | 
[V:2] e2e4 | 
[V:3] B2A2B2 | 
[V:4] E,2A,,2E,2 | 
[V:1] A4^G2 | 
[V:2] d2e4 | 
[V:3] A2B4 | 
[V:4] F,2E,4 | 
[V:1] A2c2B2 | 
[V:2] cdefg2- | 
[V:3] A4d2- | 
[V:4] A,,4G,,2- | 
[V:1] d2>c2BA | 
[V:2] g6 | 
[V:3] dcBAG2 | 
[V:4] G,,2G,4 | 
[V:1] c2B3A | 
[V:2] c2g3f | 
[V:3] A2d2e2 | 
[V:4] F,2G,2E,2 | 
[V:1] A4^G2 | 
[V:2] e6 | 
[V:3] c2B4 | 
[V:4] A,2E,4 | 
[V:1] A6- | 
[V:2] c2>d2e2 | 
[V:3] A6- | 
[V:4] A,,2>B,,2C,2 | 
[V:1] A6- | 
[V:2] f2>e2fe | 
[V:3] A2-A2-A2- | 
[V:4] D,2>C,2D,C, | 
[V:1] A6- | 
[V:2] c2>d2ef | 
[V:3] A6- | 
[V:4] A,,6- | 
[V:1] A6 |]  
[V:2] e6 |]  
[V:3] A6 |]  
[V:4] A,,6 |]  


